!!!COM:	Busnoys, Antoine
!!!CDT:	~1430///-1492/11/06
!!!OTL:	Anima mea liquefacta est / Stirips Jesse
!!!AGN:	Motet
!!!SCT:	Bus2003
!!!SCA:	Bus2003
!!!voices:	3
**kern	**kern	**kern
*staff3	*staff2	*staff1
*Ivox	*Ivox	*Ivox
*I"Tenor	*I"Altus	*I"Superius
*I'T	*I'A	*I'S
*clefF4	*clefF4	*clefGv2
*k[]	*k[]	*k[]
*M2/1	*M2/1	*M2/1
*met(C)	*met(C)	*met(C)
=1-	=1-	=1-
0r	1.D	0d
.	2E	.
=2	=2	=2
0r	2F	1d
.	2G	.
.	1E	1c
=3	=3	=3
0r	2.D	1.d
.	4C	.
.	2BB	.
.	2AA	[2e
=4	=4	=4
0r	1C	1e]
.	2D	1f
.	[2A	.
=5	=5	=5
0r	2A]	1.e
.	2B	.
.	1c	.
.	.	2d
=6	=6	=6
0r	1d	1d
.	2B	1r
.	[2G	.
=7	=7	=7
0r	4G]	1d
.	4A	.
.	2B	.
.	2c	2e
.	[2A	[2f
=8	=8	=8
0r	4A]	4f]
.	4G	4e
.	2F	1d
.	1E	.
.	.	2c#i
=9	=9	=9
0r	2r	1d
.	1D	.
.	.	1f
.	[2A	.
=10	=10	=10
0r	2A]	1e
.	2G	.
.	2.B-	2.d
.	4A	4c
=11	=11	=11
0r	2F	2d
.	2G	2.e
.	2.A	.
.	.	4d
.	.	[2c
.	4G	.
=12	=12	=12
0r	2.F	4c]
.	.	4B
.	.	1A
.	4E	.
.	2D	.
.	2C	2e
=13	=13	=13
0r	2.D	2d
.	.	1f
.	4E	.
.	2F	.
.	2G	[2e
=14	=14	=14
0r	2A	2e]
.	2F	1d
.	1E	.
.	.	2c#i
=15	=15	=15
1r	0D	1.d
1D	.	.
.	.	2A
=16	=16	=16
0D	0r	2B-i
.	.	1A
.	.	4G
.	.	4F
=17	=17	=17
0C	0AA	1E
.	.	1e
=18	=18	=18
1.D	1A	1.f
.	[1A	.
2E	.	4e
.	.	4d
=19	=19	=19
1F	1A]	2c
.	.	1d
1E	2G	.
.	2F	2c#i
=20	=20	=20
0D	1B-i	1d
.	1A	1r
=21	=21	=21
1E	2r	1.c
.	1AA	.
[1F	.	.
.	2BB	[2d
=22	=22	=22
2F]	2D	2d]
2E	2C	2e
1D	1BB	2f
.	.	4e
.	.	4d
=23	=23	=23
1C	1AA	1e
2.D	1r	2A
.	.	2B
4E	.	.
=24	=24	=24
1F	1D	2A
.	.	1d
1E	1AA	.
.	.	2c
=25	=25	=25
2r	1BB	2d
2D	.	2f
2.E	2.C	2e
.	.	[2g
4D	4D	.
=26	=26	=26
2.C	1.E	4g]
.	.	4f
.	.	4e
4BB	.	4d
1AA	.	2c
.	2C	[2e
=27	=27	=27
1.E	1C	4e]
.	.	4f
.	.	2.g
.	2r	.
.	.	4e
2D	[2BB-i	[2f
=28	=28	=28
1.F	4BB-]	4f]
.	4C	4e
.	2.D	2.d
.	4C	4A
2D	2BBni	2B
=29	=29	=29
0E	2AA	2c
.	2GG	1d
.	1AA	.
.	.	2c#i
=30	=30	=30
[0D	2r	0d
.	1A	.
.	2G	.
=31	=31	=31
1D]	2F	2r
.	4E	1a
.	4D	.
1r	2.C#i	.
.	.	2g
.	4BB	.
=32	=32	=32
0r	1D	2f
.	.	4e
.	.	4d
.	1E	2.c#i
.	.	4B
=33	=33	=33
0r	2D	2d
.	1D	2A
.	.	4B
.	.	4A
.	2BB	4G
.	.	4F
=34	=34	=34
0r	2C	2E
.	4D	4F
.	2E	2E
.	4C	2A
.	2BB	.
.	.	4G#i
=35	=35	=35
0C	0AA	2.A
.	.	4G
.	.	1E
=36	=36	=36
1.D	2.A	0r
.	4G	.
.	2F	.
2E	2E	.
=37	=37	=37
1F	1D	1A
2D	2r	2B
[2F	[2D	2A
=38	=38	=38
2F]	2D]	2d
2E	2C	2e
2.D	1BB-i	2f
.	.	4e
4C	.	4d
=39	=39	=39
0E	1AA	2.c
.	.	4d
.	2r	1e
.	[2AA	.
=40	=40	=40
1F	2AA]	1A
.	2D	.
1G	2C	1r
.	2E	.
=41	=41	=41
2F	2F	1A
1F	2A	.
.	1G	1B
2E	.	.
=42	=42	=42
1F	1F	2A
.	.	1d
1E	1r	.
.	.	2c
=43	=43	=43
1D	1BB-	2d
.	.	2f
1C	2C	2e
.	2E	2g
=44	=44	=44
2D	2D	2f
2E	2C	1e
1F	1D	.
.	.	2d
=45	=45	=45
0E	2.AA	1e
.	4BB	.
.	2.C	2c
.	.	[2g
.	4D	.
=46	=46	=46
0E	2.E	4g]
.	.	4f
.	.	4e
.	4F	4d
.	2.G	2.c#i
.	4A	4B
=47	=47	=47
1D	2B-i	1d
.	1A	.
1C	.	1e
.	2G	.
=48	=48	=48
0D	2.F	2d
.	.	1f
.	4E	.
.	1F	.
.	.	4e
.	.	4d
=49	=49	=49
1AA	1.E	2c
.	.	2.e
1C	.	.
.	.	4f
.	2C	[2g
=50	=50	=50
1BB	2D	4g]
.	.	4f
.	2BB	2d
1C	1AA	1e
=51	=51	=51
0D	2r	1d
.	2.D	.
.	.	2r
.	4E	.
.	[2F	[2a
=52	=52	=52
1r	4F]	4a]
.	4E	4g
.	4D	4f
.	4C	4e
1D	1BB	2f
.	.	4e
.	.	4d
=53	=53	=53
1E	1AA	1.c
1F	1r	.
.	.	[2A
=54	=54	=54
1D	0r	2A]
.	.	1B
1E	.	.
.	.	[2G
=55	=55	=55
1C	1E	2G]
.	.	1c
1D	1F	.
.	.	2B
=56	=56	=56
2.C	1G	2c
.	.	2.e
4D	.	.
2.E	[1C	.
.	.	4f
.	.	[2g
4F	.	.
=57	=57	=57
1G	1C]	2g]
.	.	1e
1F	1D	.
.	.	2d
=58	=58	=58
1.E	1AA	2.e
.	.	4f
.	2r	2.g
[2G	2E	.
.	.	4f
=59	=59	=59
2G]	2C	2e
2F	2D	1d
1E	1AA	.
.	.	2c
=60	=60	=60
1D	1BB	2d
.	.	2f
1E	1C	2e
.	.	2g
=61	=61	=61
1F	1D	2f
.	.	4e
.	.	4d
[1E	2.AA	2c
.	.	4B
.	4BB	4A
=62	=62	=62
2E]	2C	2G
2C	2AA	1c
1D	1GG	.
.	.	2B
=63	=63	=63
0C	2r	1c
.	1G	.
.	.	1r
.	[2A	.
=64	=64	=64
0r	4A]	1c
.	4G	.
.	2E	.
.	2F	1d
.	[2D	.
=65	=65	=65
1D	2D]	1f
.	2BB	.
1E	2C	2e
.	[2AA	[2c
=66	=66	=66
1F	2AA]	4c]
.	.	4B
.	2D	2A
[1E	2E	2G
.	2C	[2c
=67	=67	=67
1E]	2AA	4c]
.	.	4d
.	2C	2e
1D	1BB	2f
.	.	4e
.	.	4d
=68	=68	=68
1E	1AA	2c
.	.	2.e
[1G	1GG	.
.	.	4f
.	.	4e
.	.	8dL
.	.	8cJ
=69	=69	=69
2G]	1r	2B
2F	.	1A
[1F	1D	.
.	.	[2d
=70	=70	=70
2F]	1BB	2d]
2D	.	2B
1E	1AA	4c
.	.	4B
.	.	4A
.	.	4G
=71	=71	=71
[0D	1A	2.F
.	.	4G
.	2F	2A
.	2G	[2B-i
=72	=72	=72
1D]	1A	4B-i]
.	.	4A
.	.	2.d
1D	2r	.
.	.	4e
.	2D	[2f
=73	=73	=73
1C	2E	4f]
.	.	4e
.	2C	2.g
1D	1BB	.
.	.	4f
.	.	[2d
=74	=74	=74
1E	0AA	2d]
.	.	4c#i
.	.	4B
1E	.	1c#i
=75	=75	=75
1.D	1A	0d
.	1B-i	.
2E	.	.
=76	=76	=76
2F	2A	0r
1E	2.G	.
.	4E	.
2D	4F	.
.	4G	.
=77	=77	=77
2E	2E	0r
2.F	2.D	.
4E	4C	.
2D	2BB	.
=78	=78	=78
2C	2AA	0r
2F	1D	.
1E	.	.
.	2C#i	.
=79	=79	=79
0D	2D	1d
.	2.F	.
.	.	2B
.	4G	.
.	[2A	[2A
=80	=80	=80
0r	2A]	2A]
.	2F	1d
.	1E	.
.	.	2c
=81	=81	=81
0D	2D	1d
.	1F	.
.	.	1f
.	2A	.
=82	=82	=82
1E	2G	1g
.	4F	.
.	4E	.
1F	1D	2a
.	.	4g
.	.	4f
=83	=83	=83
0G	1C	2e
.	.	2.e
.	2r	.
.	.	4d
.	2C	4c
.	.	4B
=84	=84	=84
2.F	2D	2.A
.	4C	.
4D	4BB	4B
2E	2AA	2c
[2F	[2D	2A
=85	=85	=85
4F]	2D]	2d
4E	.	.
1E	2C	2e
.	1BB	2.f
2D	.	.
.	.	4e
=86	=86	=86
[0E	1AA	0c#
.	1r	.
=87	=87	=87
1E]	1C	1r
1r	2.D	1d
.	4E	.
=88	=88	=88
0r	2F	0d
.	2.G	.
.	4F	.
.	4E	.
.	4D	.
=89	=89	=89
0r	1E	1c
.	2.D	2d
.	.	[2f
.	4E	.
=90	=90	=90
0r	2F	2f]
.	2G	2e
.	2.A	2.c
.	4B	4d
=91	=91	=91
0r	2c	2e
.	1A	1f
.	2G	[2e
=92	=92	=92
0r	1F	2e]
.	.	2d
.	[1E	2e
.	.	[2g
=93	=93	=93
0r	2E]	2g]
.	2C	2e
.	2.D	[1f
.	4C	.
=94	=94	=94
0r	2AA	2f]
.	2BB	2d
.	1C	1e
=95	=95	=95
0r	2r	1d
.	1D	.
.	.	2r
.	2F	[2a
=96	=96	=96
0r	1E	2a]
.	.	2g
.	2D	2.f
.	[2F	.
.	.	4g
=97	=97	=97
0r	4F]	1a
.	4G	.
.	1A	.
.	.	2.e
.	[2E	.
.	.	4f
=98	=98	=98
0r	4E]	1g
.	4F	.
.	1G	.
.	.	2.d
.	[2D	.
.	.	4e
=99	=99	=99
0r	4D]	2.f
.	4E	.
.	2.F	.
.	.	4e
.	.	2.c
.	4E	.
.	[2C	.
.	.	4d
=100	=100	=100
0r	4C]	2.e
.	4D	.
.	2.E	.
.	.	4d
.	.	2.B
.	4D	.
.	[2BB	.
.	.	4c
=101	=101	=101
0r	4BB]	2.d
.	4C	.
.	2.D	.
.	.	4c
.	.	[1A
.	4C	.
.	2AA	.
=102	=102	=102
0r	2D	2A]
.	2F	1d
.	1E	.
.	.	2c#i
=103	=103	=103
0r	2r	1d
.	2D	.
.	2.F	2r
.	.	2d
.	4E	.
=104	=104	=104
0r	2D	2.f
.	2C	.
.	.	4e
.	2BB	2d
.	2C	2c
=105	=105	=105
0r	2D	2B
.	2E	2c
.	1F	2d
.	.	[2f
=106	=106	=106
0r	1D	4f]
.	.	4e
.	.	1d
.	1E	.
.	.	2c#i
=107	=107	=107
0D	1r	3%2dV
.	.	3%2r
.	1D	.
.	.	3%2fZ
=108	=108	=108
1D	[0A	3fV
.	.	3g
.	.	3%2a
1C	.	.
.	.	3g
.	.	3eZ
=109	=109	=109
3%2DV	0A]	3%2fV
3%2.F	.	3%2.d
3EZ	.	3cZ
=110	=110	=110
0C	3%2.GV	3%2eV
.	.	3%2r
.	3A	.
.	3G	3%2eZ
.	3EZ	.
=111	=111	=111
1D	3%2DV	3%2AV
.	3FZ	3%2B
1E	3EV	.
.	3%2GZ	3%2cZ
=112	=112	=112
3%2.FV	3%2FV	3%2AV
.	3%2BB-	3%2d
3D	.	.
3%2EZ	3%2AAZ	3c
.	.	3BZ
=113	=113	=113
1D	3rV	3dV
.	3%2DZ	3e
.	.	3fZ
1r	3EV	3gV
.	3D	3f
.	3BBZ	3dZ
=114	=114	=114
3%2EV	3AAV	3cV
.	3C	3e
3%2.G	3BBZ	3dZ
.	3%2GGV	3BV
.	.	3d
3EZ	3GZ	3cZ
=115	=115	=115
3%2FV	3FV	3AV
.	3%2DZ	3B
3%2.E	.	3dZ
.	3%2GV	3%2c#iV
3DZ	3FZ	3BZ
=116	=116	=116
*	*	*M2/1
*	*	*met(Cr)
*	*	*rscale:2
1.D	2.A	2.d
.	4G	4B
.	2F	4A
.	.	2B
2E	2E	.
.	.	4c
=117	=117	=117
2F	2D	4A
.	.	4d
2A	2F	4c
.	.	2f
1G	1C	.
.	.	8eL
.	.	8dJ
.	.	8eL
.	.	8d
.	.	8c
.	.	8BJ
=118	=118	=118
1F	2r	4.A
.	.	8B
.	2.F	4c
.	.	2d
1r	.	.
.	4E	4c
.	2D	4d
.	.	4f
=119	=119	=119
1r	2C	4e
.	.	4.g
.	2D	.
.	.	8f
.	.	8eL
.	.	8dJ
2r	1E	4c#i
.	.	4B
2G	.	2c#i
*	*	*rscale:1
=120	=120	=120
*	*	*M2/1
*	*	*met(C)
1A	1D	1d
1E	1r	2r
.	.	2g
=121	=121	=121
2r	0r	1a
2F	.	.
1G	.	1e
=122	=122	=122
1D	0r	2r
.	.	2f
2r	.	1g
2E	.	.
=123	=123	=123
2.F	1A	1d
4E	.	.
1C	1G	2r
.	.	2e
=124	=124	=124
2.D	1F	2f
.	.	4e
4C	.	4d
2AA	2E	2c
[2D	[2F	2A
=125	=125	=125
2D]	4F]	2d
.	4E	.
2BB	4D	2.f
.	8CL	.
.	8BBJ	.
1C	2AA	.
.	.	4e
.	2E	2g
=126	=126	=126
*	*M2/1	*
*	*met(2)	*
*	*rscale:2	*
2D	4.F	2f
.	8D	.
2.F	2D	2.a
.	4r	.
4E	4C	4g
2D	4D	4f
.	4F	4d
=127	=127	=127
2C	4E	2e
.	4.G	.
2BB	.	4d
.	8F	.
.	8EL	4f
.	8DJ	.
2C	4C	4e
.	4E	4g
2D	4D	4f
.	8CL	8eL
.	8BBJ	8dJ
=128	=128	=128
2E	2AA	2.c
1F	4r	.
.	2D	2A
.	4D	4B
4E	4E	4A
4D	4F	8GL
.	.	8FJ
*	*rscale:1	*
=129	=129	=129
*	*M2/1	*M3/1
*	*met(C)	*met(O/3)
1C	3.GV	3.E
.	6F	6F
.	3EZ	3G
1r	3.FV	3.A
.	6G	6B
.	3AZ	3c
=130	=130	=130
0r	3FV	3d
.	3.G	3.e
.	6DZ	6d
.	3FV	3%2d
.	3.E	.
.	.	3c#i
.	6DZ	.
=131	=131	=131
[0Dl	0D	[0dl
=132	=132	=132
0D]	0Al	0d]
==	==	==
*-	*-	*-
!!!RDF**kern: l=long note in original notation
!!!RDF**kern: i=editorial accidental
!!!RDF**kern: V=start of tuplet marker
!!!RDF**kern: Z=end of tuplet marker
!!!ENC:	Jesse Rodin; Megan K. Eagen 2013/04/29
!!!END:	2013/04/29/
!!!EED:	Jesse Rodin
!!!EEV:	2014/01/03/
!!!ONB:	Translated from MusicXML and edited on 2014/01/03/ by Craig Sapp
!!muse2ps: C^@{COM}^i2I150v85,85,150Q16
